icons/night/prisma.svg

<svg width="16" height="16" viewBox="0 0 16 16" fill="none" xmlns="http://www.w3.org/2000/svg">
<path fill-rule="evenodd" clip-rule="evenodd" d="M2.114 10.237C2.04117 10.1479 2.00088 10.0366 1.99979 9.92156C1.9987 9.80649 2.03687 9.69448 2.108 9.60401L7.613 2.28501C7.919 1.87801 8.658 1.91401 8.903 2.34701L13.933 11.239C14.119 11.569 13.904 11.957 13.477 12.062L5.655 13.975C5.34 14.052 5.001 13.949 4.825 13.722L2.114 10.237ZM8.248 4.42501C8.301 4.21001 8.663 4.17901 8.77 4.38101L12.239 10.923C12.304 11.046 12.223 11.188 12.065 11.227L6.66 12.542C6.461 12.59 6.271 12.449 6.312 12.283L8.248 4.42501Z" fill="#1ABC9C"/>
</svg>

<svg xmlns="http://www.w3.org/2000/svg" fill="none" viewBox="0 0 16 16"><path
    fill="#1abc9c"
    fill-rule="evenodd"
    d="M2.114 10.237a.506.506 0 0 1-.006-.633l5.505-7.319c.306-.407 1.045-.371 1.29.062l5.03 8.892c.186.33-.029.718-.456.823l-7.822 1.913c-.315.077-.654-.026-.83-.253l-2.711-3.485Zm6.134-5.812c.053-.215.415-.246.522-.044l3.469 6.542c.065.123-.016.265-.174.304L6.66 12.542c-.199.048-.389-.093-.348-.259l1.936-7.858Z"
    clip-rule="evenodd"
  /></svg>
